resources/svg/reply-all-line.svg

<svg fill="currentColor" viewBox="0 0 24 24" xmlns="http://www.w3.org/2000/svg"><path d="M14 4.5V9C19.5228 9 24 13.4772 24 19C24 19.2727 23.9891 19.5428 23.9677 19.81C22.5055 17.0364 19.6381 15.119 16.313 15.0053L16 15H13.9999L14 19.5L6 12L14 4.5ZM8 4.5V7.237L2.92 12L7.999 16.761L8 19.5L0 12L8 4.5ZM12 9.11646L8.92423 12L11.9999 14.8834L11.9999 13L16.0341 13.0003L16.3814 13.0065C17.6657 13.0504 18.9053 13.3165 20.0568 13.7734C18.5898 12.0749 16.4204 11 14 11H12V9.11646Z"/></svg>

<svg xmlns="http://www.w3.org/2000/svg" viewBox="0 0 24 24" fill="currentColor">
    <g>
        <path fill="none" d="M0 0H24V24H0z"/>
        <path d="M14 4.5V9c5.523 0 10 4.477 10 10 0 .273-.01.543-.032.81-1.463-2.774-4.33-4.691-7.655-4.805L16 15h-2v4.5L6 12l8-7.5zm-6 0v2.737L2.92 12l5.079 4.761L8 19.5 0 12l8-7.5zm4 4.616L8.924 12 12 14.883V13h4.034l.347.007c1.285.043 2.524.31 3.676.766C18.59 12.075 16.42 11 14 11h-2V9.116z"/>
    </g>
</svg>
